X:1
T:Childe of plimstock - doige
T:Sent me by Mrs. Gibbons as sung by Eliz. Doidge.Same air at Shaugh, 
T:Sung to Childe ye. Hunter circ. 1830, says Miss Phillips of Abbots Kerswell.
%%VWML:SBG-1-1-170-0
F:http://www.vwml.org/record/SBG/1/1/170
Z:Original Sibleius Transcription by Martin and Shan Graebe
M:4/4
L:1/8
K:Dm
FG | A2 A2 A2>A2 | A2 d2 d2 cB | A2 A2 BA GF | E6 FG | 
A2>A2 BA GF |GA Bc d2 cB | Ad AF ED EF | D4 z2||



